X: 21221
T: ON A BANK OF FLOWERS
%R: march
B: "Edinburgh Repository of Music" v.2 p.122 #1
F: http://digital.nls.uk/special-collections-of-printed-music/pageturner.cfm?id=87776133
Z: 2015 John Chambers <jc:trillian.mit.edu>
M: C|
L: 1/8
K: Dm
DE |\
F2A2 A2=B^c | d2A2 A2f2 | e2d2 (fd).d.^c | [d6F6] DE |\
F2A2 A2=B^c | d2A2 A2f2 | e2d2 fed^c | d4- d2 :|
|: fg |\
.a2.f2 .f2ga | .g2.c2 .c2de | .f2.d2 .d2ef | e2A2 A2FG |\
({B}A^GA).B A2FG | ({B}A^GA).B A2f2 | e2d2 (fe)d^c | d4- d2 :|

%%sep 2 1 500
%%sep 1 1 500

